brandFactory_export/3.Masa/Mano abajo_3Masa.svg

<?xml version="1.0" encoding="UTF-8"?>
<svg width="24px" height="24px" viewBox="0 0 24 24" version="1.1" xmlns="http://www.w3.org/2000/svg" xmlns:xlink="http://www.w3.org/1999/xlink">
    <title>3.Masa/Mano abajo_3Masa</title>
    <g id="Symbols" stroke="none" stroke-width="1" fill="none" fill-rule="evenodd">
        <g id="3.Masa/Mano-abajo_3Masa" fill="#5CB615" fill-rule="nonzero">
            <path d="M15.1697479,0 L5.82857143,0 C4.6487395,0 3.64033613,0.369747899 2.99159664,1.03865546 C2.34621849,1.70420168 2.02016807,2.63529412 2.02016807,3.79831933 L2.02016807,12.194958 C2.02016807,13.7210084 2.95798319,14.6689076 4.46386555,14.6689076 C4.80336134,14.6689076 5.11260504,14.6218487 5.39159664,14.5277311 C5.67731092,15.5563025 6.5210084,16.1680672 7.72773109,16.1680672 C8.07058824,16.1680672 8.38319328,16.1210084 8.65882353,16.0268908 C8.9512605,17.0453782 9.78823529,17.6504202 10.9915966,17.6504202 C11.287395,17.6504202 11.5630252,17.6134454 11.8117647,17.5428571 L11.8117647,21.0252101 C11.8117647,22.6252101 12.7932773,23.6201681 14.3731092,23.6201681 C15.892437,23.6201681 16.8235294,22.692437 16.9277311,21.0789916 C16.9277311,21.0621849 16.9310924,21.0420168 16.9310924,21.0252101 L16.9310924,12.1647059 C17.3378151,12.8571429 17.7008403,13.3411765 18.1411765,13.6907563 C18.5714286,14.0336134 19.0857143,14.2084034 19.589916,14.2084034 C20.0739496,14.2084034 20.5512605,14.0504202 20.9478992,13.7310924 C21.7277311,13.1058824 21.9193277,12.0403361 21.4386555,11.0184874 C20.6218487,9.28067227 19.2470588,6.48403361 18.1445378,4.24201681 C17.4554622,2.84369748 16.8605042,1.63697479 16.692437,1.27058824 C16.5210084,0.890756303 16.107563,0 15.1697479,0" id="Path"></path>
        </g>
    </g>
</svg>

<svg width="24" height="24" viewBox="0 0 24 24" xmlns="http://www.w3.org/2000/svg"><path d="M15.17 0H5.829C4.649 0 3.64.37 2.992 1.039c-.646.665-.972 1.596-.972 2.76v8.396c0 1.526.938 2.474 2.444 2.474.34 0 .649-.047.928-.141.285 1.028 1.129 1.64 2.336 1.64.343 0 .655-.047.93-.141.293 1.018 1.13 1.623 2.334 1.623.295 0 .571-.037.82-.107v3.482c0 1.6.981 2.595 2.561 2.595 1.52 0 2.45-.928 2.555-2.541l.003-.054v-8.86c.407.692.77 1.176 1.21 1.526.43.343.945.517 1.449.517.484 0 .961-.158 1.358-.477.78-.625.971-1.69.49-2.713-.816-1.737-2.19-4.534-3.293-6.776-.69-1.398-1.284-2.605-1.453-2.971C16.521.89 16.108 0 15.17 0" fill="#5CB615" fill-rule="nonzero"/></svg>
